assets/images/favicon-mix-sistemas.svg

<svg xmlns="http://www.w3.org/2000/svg" width="512" height="512" fill="none"><defs><linearGradient id="a" x1="60" x2="450" y1="40" y2="470" gradientUnits="userSpaceOnUse"><stop stop-color="#1C1C1C"/><stop offset="1" stop-color="#0D0D0D"/></linearGradient><linearGradient id="b" x1="110" x2="338" y1="92" y2="356" gradientUnits="userSpaceOnUse"><stop stop-color="#F2C400"/><stop offset="1" stop-color="#FFD94C"/></linearGradient><linearGradient id="c" x1="328" x2="428" y1="170" y2="292" gradientUnits="userSpaceOnUse"><stop stop-color="#FF4A63"/><stop offset="1" stop-color="#C9152B"/></linearGradient></defs><rect width="512" height="512" fill="url(#a)" rx="120"/><rect width="364" height="364" x="74" y="74" fill="#171717" stroke="#2A2A2A" stroke-width="8" rx="96"/><path fill="url(#b)" d="M132 334V174h44l80 88 80-88h44v160h-48v-82l-76 82-76-82v82z"/><path stroke="url(#c)" stroke-linecap="round" stroke-width="20" d="M345 130c37 12 65 41 74 79"/><path stroke="url(#c)" stroke-linecap="round" stroke-width="20" d="M369 98c48 17 83 56 94 107" opacity=".75"/></svg>

<svg xmlns="http://www.w3.org/2000/svg" width="512" height="512" viewBox="0 0 512 512" fill="none">
  <defs>
    <linearGradient id="bg" x1="60" y1="40" x2="450" y2="470" gradientUnits="userSpaceOnUse">
      <stop stop-color="#1C1C1C"/>
      <stop offset="1" stop-color="#0D0D0D"/>
    </linearGradient>
    <linearGradient id="gold" x1="110" y1="92" x2="338" y2="356" gradientUnits="userSpaceOnUse">
      <stop stop-color="#F2C400"/>
      <stop offset="1" stop-color="#FFD94C"/>
    </linearGradient>
    <linearGradient id="red" x1="328" y1="170" x2="428" y2="292" gradientUnits="userSpaceOnUse">
      <stop stop-color="#FF4A63"/>
      <stop offset="1" stop-color="#C9152B"/>
    </linearGradient>
  </defs>
  <rect width="512" height="512" rx="120" fill="url(#bg)"/>
  <rect x="74" y="74" width="364" height="364" rx="96" fill="#171717" stroke="#2A2A2A" stroke-width="8"/>
  <path d="M132 334V174H176L256 262L336 174H380V334H332V252L256 334L180 252V334H132Z" fill="url(#gold)"/>
  <path d="M345 130C382 142 410 171 419 209" stroke="url(#red)" stroke-width="20" stroke-linecap="round"/>
  <path d="M369 98C417 115 452 154 463 205" stroke="url(#red)" stroke-width="20" stroke-linecap="round" opacity="0.75"/>
</svg>
